X:1
T:Title
%%score { ( 1 3 ) | ( 2 4 ) }
L:1/8
M:3/4
K:E
V:1 treble nm="Grand Piano"
V:3 treble 
V:2 bass 
V:4 bass 
V:1
 z2 z2[Q:1/4=100] B>B | B3 G [EG]>F | E4 E>D | F4 F>E |[M:2/4] G4 |[M:1/4] [GB]>[GB] | %6
[M:3/4] [GB]3 [B,EG] [B,EG]>[A,B,F] | [G,B,E]4 [A,CF]>[CA] | [B,EG]4 [A,DF]2 |[M:2/4] [G,E]4 | %10
[M:1/4] [EGB]>[B,EG] |[M:3/4] [Ge]3 [Bd] [Ac]>[ce] | [GB]4 [GB]>[GB] | B3 B c>c |[M:5/8] d-d- d3 | %15
[M:1/4] [Ge]>[Bd] |[M:3/4] [Ac]3 [GB] [Ac]>[ce] | [GB]4 E>F | G4 [EG]>F |[M:2/4] E4 |] %20
V:2
 z2 z2 [E,G,E]>[E,G,E] | [E,G,E]3 [E,B,E] [B,,B,]>[B,,A,B,] | [E,G,B,]4 [B,,G,B,]>[B,,F,B,] | %3
 [B,,A,B,]4 [E,A,B,]>[E,G,B,] |[M:2/4] [E,B,E]4 |[M:1/4] [E,E]>[E,E] |[M:3/4] [E,E]3 E, B,,>B,, | %7
 E,4 A,,>A,, | B,,4 B,,2 |[M:2/4] E,4 |[M:1/4] E,>E, |[M:3/4] [E,B,]3 [E,E] [E,E]>[E,E] | %12
 [E,E]4 [E,E]>[E,E] | [F,DF]3 [F,DF] [F,EF]>[F,EF] |[M:5/8] [DF]2 F3 |[M:1/4][K:bass] [E,E]>[E,E] | %16
[M:3/4] [E,E]3 [E,E] [E,E]>[E,E] | [E,E]4 [G,B,]>[A,CE] | [B,E]4 [B,,B,]>[B,,A,B,] | %19
[M:2/4] [E,G,B,]4 |] %20
V:3
 x6 | x6 | x6 | x6 |[M:2/4] x4 |[M:1/4] x2 |[M:3/4] x6 | x6 | x6 |[M:2/4] x4 |[M:1/4] x2 | %11
[M:3/4] x6 | x6 | x6 |[M:5/8] z2 A3 |[M:1/4] x2 |[M:3/4] x6 | x6 | x6 |[M:2/4] x4 |] %20
V:4
 x6 | x6 | x6 | x6 |[M:2/4] x4 |[M:1/4] x2 |[M:3/4] x6 | x6 | x6 |[M:2/4] x4 |[M:1/4] x2 | %11
[M:3/4] x6 | x6 | x6 |[M:5/8] B,-B,- B,3 |[M:1/4][K:bass] x2 |[M:3/4] x6 | x6 | x6 |[M:2/4] x4 |] %20

